X:2426
T:HADIWAT- Had I the Wate she bade me
O:england
S:Oswald's CPC, bk. 7
Q:1/4=60
L:1/4
M:C
K:G
d3/4B/4G3/4B/4 d3/4B/4G3/4B/4|d3/4B/4G3/4g/4 ~fd3/4f/4|\
e3/4^c/4A3/4c/4 (e/4d/4^c/4B/4 A/c/|\
e/4e/4e/ e3/4f/4 f (a/4g/4f/4e/4)|\
d3/4B/4G3/4B/4 (d/4c/4B/4A/4) G/B/|\
d/4d/4d/ d3/4e/4 ~fd/(f/4g/4)|\
a/f/g/e/ f/d/B/a/|A/4A/4A/ B3/4d/4eg:|]


